src/lib/packages/icons/src/assets/filled/bell-times.svg

<svg width="24" height="24" viewBox="0 0 24 24" fill="none" xmlns="http://www.w3.org/2000/svg">
<path d="M20.391 17.688C20.372 17.665 18.495 15.282 18.495 12.5V8.995C18.495 5.414 15.581 2.5 12 2.5C8.419 2.5 5.505 5.414 5.505 8.995V12.5C5.505 15.281 3.62899 17.664 3.60899 17.688C3.48899 17.838 3.46599 18.044 3.54899 18.217C3.63199 18.39 3.80699 18.5 3.99899 18.5H19.999C20.191 18.5 20.366 18.39 20.449 18.217C20.534 18.043 20.51 17.838 20.391 17.688ZM14.03 11.97C14.323 12.263 14.323 12.738 14.03 13.031C13.884 13.177 13.692 13.251 13.5 13.251C13.308 13.251 13.116 13.178 12.97 13.031L12 12.061L11.03 13.031C10.884 13.177 10.692 13.251 10.5 13.251C10.308 13.251 10.116 13.178 9.97 13.031C9.677 12.738 9.677 12.263 9.97 11.97L10.94 11L9.97 10.03C9.677 9.737 9.677 9.26199 9.97 8.96899C10.263 8.67599 10.738 8.67599 11.031 8.96899L12.001 9.939L12.971 8.96899C13.264 8.67599 13.739 8.67599 14.032 8.96899C14.325 9.26199 14.325 9.737 14.032 10.03L13.062 11L14.03 11.97ZM14.162 20.252C13.706 21.033 12.898 21.5 12 21.5C11.102 21.5 10.294 21.033 9.83799 20.252C9.74799 20.098 9.74699 19.906 9.836 19.751C9.925 19.596 10.09 19.5 10.27 19.5H13.73C13.909 19.5 14.074 19.596 14.164 19.751C14.254 19.906 14.252 20.098 14.162 20.252Z" fill="currentColor"/>
</svg>

<svg xmlns="http://www.w3.org/2000/svg" width="24" height="24" fill="none"><path fill="currentColor" d="M20.391 17.688c-.019-.023-1.896-2.406-1.896-5.188V8.995A6.503 6.503 0 0 0 12 2.5a6.503 6.503 0 0 0-6.495 6.495V12.5c0 2.781-1.876 5.164-1.896 5.188a.5.5 0 0 0 .39.812h16a.499.499 0 0 0 .392-.812ZM14.03 11.97a.75.75 0 0 1-1.06 1.061l-.97-.97-.97.97a.748.748 0 0 1-1.06 0 .75.75 0 0 1 0-1.061l.97-.97-.97-.97a.75.75 0 1 1 1.061-1.061l.97.97.97-.97a.75.75 0 1 1 1.061 1.061l-.97.97.968.97Zm.132 8.282A2.483 2.483 0 0 1 12 21.5a2.483 2.483 0 0 1-2.162-1.248.501.501 0 0 1 .432-.752h3.46a.499.499 0 0 1 .432.752Z"/></svg>
